; generated by PrusaSlicer 2.5.2+win64 on 2023-08-25 at 08:39:22 UTC


;
;
; 

; external perimeters extrusion width = 0.45mm
; perimeters extrusion width = 0.45mm
; infill extrusion width = 0.45mm
; solid infill extrusion width = 0.45mm
; top infill extrusion width = 0.40mm
; first layer extrusion width = 0.42mm

M73 P0 R101
M73 Q0 S101
M201 X1000 Y1000 Z200 E5000 ; sets maximum accelerations, mm/sec^2
M203 X200 Y200 Z12 E120 ; sets maximum feedrates, mm / sec
M204 P1250 R1250 T1250 ; sets acceleration (P, T) and retract acceleration (R), mm/sec^2
M205 X8.00 Y8.00 Z0.40 E4.50 ; sets the jerk limits, mm/sec
M205 S0 T0 ; sets the minimum extruding and travel feed rate, mm/sec
M107
;TYPE:Custom
M862.3 P "MK3S" ; printer model check
M862.1 P0.4 ; nozzle diameter check
M115 U3.12.2 ; tell printer latest fw version
G90 ; use absolute coordinates
M83 ; extruder relative mode
M104 S255 ; set extruder temp
M140 S100 ; set bed temp
M190 S100 ; wait for bed temp
M109 S255 ; wait for extruder temp
G28 W ; home all without mesh bed level
G80 ; mesh bed leveling

G1 Z0.2 F720
G1 Y-3 F1000 ; go outside print area
G92 E0
G1 X60 E9 F1000 ; intro line
G1 X100 E12.5 F1000 ; intro line

G92 E0
M221 S95

; Don't change E values below. Excessive value can damage the printer.

M907 E538 ; set extruder motor current
G21 ; set units to millimeters
G90 ; use absolute coordinates
M83 ; use relative distances for extrusion
M900 K0.04 ; Filament gcode LA 1.5
M900 K20 ; Filament gcode LA 1.0
M107
;LAYER_CHANGE
;Z:0.2
;HEIGHT:0.2
;BEFORE_LAYER_CHANGE
G92 E0.0
;0.2


G1 E-.8 F2100
G1 Z.4 F10800
;AFTER_LAYER_CHANGE
;0.2
G1 X89.918 Y41.582
G1 Z.2
G1 E.8 F2100
M204 S1000
;TYPE:Skirt/Brim
;WIDTH:0.42
G1 F1200
G1 X90.613 Y40.602 E.0377
G1 X91.586 Y39.826 E.03901
G1 X92.697 Y39.366 E.0377
G1 X93.667 Y39.227 E.03072
G1 X156.333 Y39.227 E1.96486
G1 X157.043 Y39.307 E.0224
G1 X157.784 Y39.522 E.02419
G1 X158.64 Y39.968 E.03026
G1 X159.198 Y40.413 E.02239
G1 X159.711 Y40.99 E.02419
G1 X160.198 Y41.822 E.03025
G1 X160.493 Y42.756 E.03072
G1 X160.573 Y43.467 E.02241
G1 X160.577 Y166.4 E3.85449
G1 X160.434 Y167.503 E.03487
G1 X160.082 Y168.418 E.03073
G1 X159.387 Y169.398 E.03769
G1 X158.414 Y170.174 E.03901
G1 X157.303 Y170.634 E.0377
G1 X156.2 Y170.777 E.03487
G1 X93.8 Y170.777 E1.95651
G1 X92.697 Y170.634 E.03488
G1 X91.783 Y170.282 E.03072
G1 X90.802 Y169.587 E.0377
G1 X90.026 Y168.614 E.03901
G1 X89.566 Y167.503 E.03771
G1 X89.423 Y166.4 E.03487
G1 X89.423 Y43.6 E3.85031
G1 X89.566 Y42.497 E.03487
G1 X89.896 Y41.638 E.02884
; printing object [a]_grill_endcap_x4.stl id:0 copy 0
;WIPE_START
G1 F8640
G1 X90.613 Y40.602 E-.29105
G1 X91.586 Y39.826 E-.2873
G1 X92.313 Y39.525 E-.18165
;WIPE_END
G1 E-.04 F2100
G1 Z.6 F10800
G1 X150.506 Y122.732
G1 Z.2
G1 E.8 F2100
;TYPE:Perimeter
;WIDTH:0.419999
G1 F1200
G1 X150.478 Y122.855 E.00398
G1 X150.473 Y123.441 E.01836
G1 X150.515 Y123.769 E.01037
G1 X150.72 Y124.471 E.02292
G1 X150.989 Y124.965 E.01765
G1 X151.183 Y125.233 E.01037
G1 X151.701 Y125.75 E.02293
G1 X152.175 Y126.053 E.01764
G1 X152.485 Y126.198 E.01073
G1 X153.112 Y126.386 E.02053
G1 X153.742 Y126.436 E.01982
G1 X154.541 Y126.324 E.0253
G1 X155.292 Y126.017 E.02543
G1 X155.942 Y125.533 E.02543
G1 X156.452 Y124.902 E.02543
G1 X156.659 Y124.492 E.01439
G1 X156.659 Y151.908 E.85962
G1 X156.611 Y151.788 E.00404
G1 X156.169 Y151.109 E.02543
G1 X155.571 Y150.56 E.02543
G1 X154.856 Y150.178 E.02543
G1 X154.068 Y149.985 E.02543
G1 X153.726 Y149.965 E.01073
G1 X153.223 Y150.002 E.01583
G1 X152.905 Y150.064 E.01015
G1 X152.257 Y150.299 E.02163
G1 X151.768 Y150.605 E.01809
G1 X151.513 Y150.816 E.01037
G1 X151.032 Y151.361 E.02279
G1 X150.757 Y151.857 E.01778
G1 X150.635 Y152.164 E.01037
G1 X150.476 Y152.876 E.02286
G1 X150.473 Y153.441 E.01772
G1 X150.515 Y153.769 E.01037
G1 X150.705 Y154.439 E.02182
G1 X150.989 Y154.965 E.01877
G1 X151.183 Y155.233 E.01037
G1 X151.631 Y155.695 E.02018
G1 X152.175 Y156.053 E.02041
G1 X152.474 Y156.194 E.01037
G1 X153.08 Y156.382 E.01991
G1 X153.738 Y156.435 E.02068
G1 X154.541 Y156.324 E.02543
G1 X155.292 Y156.017 E.02543
G1 X155.942 Y155.533 E.02543
G1 X156.452 Y154.902 E.02543
G1 X156.659 Y154.492 E.01439
G1 X156.659 Y166.32 E.37085
G1 X156.571 Y166.636 E.01029
G1 X156.469 Y166.758 E.00499
G1 X156.12 Y166.859 E.0114
G1 X130.08 Y166.859 E.81644
G1 X129.764 Y166.771 E.01029
G1 X129.642 Y166.669 E.00499
G1 X129.541 Y166.32 E.01139
G1 X129.541 Y110.08 E1.76334
G1 X129.629 Y109.764 E.01029
G1 X129.731 Y109.642 E.005
G1 X130.08 Y109.541 E.01139
G1 X156.128 Y109.542 E.8167
G1 X156.416 Y109.62 E.00935
G1 X156.581 Y109.761 E.0068
G1 X156.659 Y110.169 E.01305
G1 X156.659 Y121.908 E.36806
G1 X156.611 Y121.788 E.00404
G1 X156.169 Y121.109 E.02543
G1 X155.933 Y120.86 E.01073
G1 X155.542 Y120.542 E.01583
G1 X154.852 Y120.176 E.02448
G1 X154.068 Y119.985 E.0253
G1 X153.726 Y119.965 E.01073
G1 X153.223 Y120.002 E.01583
G1 X152.905 Y120.064 E.01015
G1 X152.316 Y120.269 E.01957
G1 X151.768 Y120.605 E.02016
G1 X151.513 Y120.816 E.01038
G1 X151.043 Y121.344 E.02215
G1 X150.757 Y121.857 E.01842
G1 X150.635 Y122.164 E.01037
G1 X150.519 Y122.673 E.01636
;WIPE_START
G1 F8640
G1 X150.478 Y122.855 E-.04316
G1 X150.473 Y123.441 E-.13522
G1 X150.515 Y123.769 E-.0764
G1 X150.72 Y124.471 E-.16877
G1 X150.989 Y124.965 E-.13001
G1 X151.183 Y125.233 E-.07638
G1 X151.582 Y125.631 E-.13005
;WIPE_END
G1 E-.04 F2100
G1 Z.6 F10800
G1 X156.998 Y122.725
G1 Z.2
G1 E.8 F2100
;WIDTH:0.502051
G1 F1200
G1 X157.01 Y123.348 E.02379
;WIDTH:0.506423
G1 X156.993 Y123.888 E.02083
G1 X157.014 Y124.255 E.01414
;WIDTH:0.463211
G1 X157.036 Y124.621 E.01282
;WIDTH:0.419999
G1 X157.036 Y151.779 E.85153
;WIDTH:0.461025
G1 X157.015 Y152.175 E.01376
;WIDTH:0.502051
G1 X156.995 Y152.57 E.01511
G1 X157.01 Y153.348 E.02972
;WIDTH:0.506423
G1 X156.993 Y153.888 E.02083
G1 X157.014 Y154.255 E.01414
;WIDTH:0.463211
G1 X157.036 Y154.621 E.01282
;WIDTH:0.419999
G1 X157.036 Y166.341 E.36747
G1 X156.963 Y166.676 E.01076
G1 X156.786 Y166.987 E.0112
G1 X156.476 Y167.163 E.01118
G1 X156.141 Y167.236 E.01077
G1 X130.059 Y167.236 E.81776
G1 X129.724 Y167.163 E.01076
G1 X129.414 Y166.987 E.0112
G1 X129.237 Y166.676 E.01118
G1 X129.164 Y166.341 E.01077
G1 X129.164 Y110.059 E1.76466
G1 X129.237 Y109.724 E.01076
G1 X129.414 Y109.413 E.0112
G1 X129.724 Y109.237 E.01118
G1 X130.059 Y109.164 E.01077
G1 X156.031 Y109.165 E.81432
G1 X156.234 Y109.174 E.00638
G1 X156.56 Y109.272 E.01065
G1 X156.786 Y109.413 E.00838
G1 X156.971 Y109.701 E.01072
G1 X157.036 Y110.169 E.01482
G1 X157.036 Y121.779 E.36402
;WIDTH:0.461025
G1 X157.015 Y122.175 E.01376
;WIDTH:0.502051
G1 X156.997 Y122.665 E.01875
;WIPE_START
G1 F8640
G1 X157.01 Y123.348 E-.15772
G1 X156.993 Y123.888 E-.12477
G1 X157.014 Y124.255 E-.0847
G1 X157.036 Y124.621 E-.0847
G1 X157.036 Y125.955 E-.3081
;WIPE_END
G1 E-.04 F2100
G1 Z.6 F10800
G1 X156.941 Y109.064
G1 Z.2
G1 E.8 F2100
;WIDTH:0.419999
G1 F1200
G1 X157.125 Y109.234 E.00786
G1 X157.334 Y109.586 E.01284
G1 X157.413 Y110.169 E.01846
G1 X157.413 Y166.288 E1.75955
G1 X157.38 Y166.653 E.01151
M73 P0 R100
G1 X157.268 Y166.924 E.0092
G1 X157.125 Y167.166 E.00881
G1 X156.856 Y167.414 E.01147
G1 X156.454 Y167.58 E.01365
G1 X156.162 Y167.613 E.00921
G1 X130.112 Y167.613 E.81676
G1 X129.747 Y167.58 E.01151
G1 X129.476 Y167.468 E.0092
G1 X129.234 Y167.325 E.00881
G1 X128.986 Y167.056 E.01147
G1 X128.82 Y166.654 E.01364
G1 X128.787 Y166.362 E.00921
G1 X128.787 Y110.112 E1.76366
G1 X128.82 Y109.747 E.01151
G1 X128.932 Y109.476 E.00919
G1 X129.075 Y109.234 E.00881
G1 X129.344 Y108.986 E.01147
G1 X129.746 Y108.82 E.01364
G1 X130.038 Y108.787 E.00922
G1 X156.031 Y108.788 E.81498
G1 X156.453 Y108.82 E.01326
G1 X156.855 Y108.986 E.01366
G1 X156.896 Y109.024 E.00175
G1 X157.201 Y108.78 F10800
;TYPE:External perimeter
G1 F1200
G1 X157.448 Y109.034 E.0111
G1 X157.697 Y109.47 E.01576
G1 X157.79 Y110.169 E.02211
G1 X157.79 Y166.288 E1.75955
G1 X157.749 Y166.748 E.0145
M73 Q0 S100
G1 X157.542 Y167.249 E.01699
G1 X157.42 Y167.402 E.00612
G1 X157.049 Y167.742 E.01578
G1 X156.549 Y167.949 E.01699
G1 X156.183 Y167.99 E.01155
G1 X130.112 Y167.99 E.81742
G1 X129.652 Y167.949 E.0145
G1 X129.151 Y167.742 E.01699
G1 X128.999 Y167.62 E.00612
G1 X128.658 Y167.249 E.01578
G1 X128.451 Y166.749 E.01699
G1 X128.41 Y166.383 E.01155
G1 X128.41 Y110.112 E1.76432
G1 X128.451 Y109.652 E.01449
M73 P1 R100
M73 Q1 S100
G1 X128.658 Y109.151 E.01699
G1 X128.78 Y108.998 E.00612
G1 X129.151 Y108.658 E.01578
G1 X129.651 Y108.451 E.01699
G1 X130.017 Y108.41 E.01155
G1 X156.031 Y108.411 E.81564
G1 X156.548 Y108.451 E.01626
G1 X157.049 Y108.658 E.01699
G1 X157.155 Y108.742 E.00424
G1 X157.143 Y109.129 F10800
;WIPE_START
G1 F8640
G1 X157.448 Y109.034 E-.0955
G1 X157.697 Y109.47 E-.11606
G1 X157.79 Y110.169 E-.16283
G1 X157.79 Y111.84 E-.38562
;WIPE_END
G1 E-.04 F2100
G1 Z.6 F10800
G1 X155.788 Y121.269
G1 Z.2
G1 E.8 F2100
;TYPE:Perimeter
G1 F1200
G1 X156.147 Y121.72 E.01806
;WIDTH:0.438161
G1 X156.446 Y122.372 E.02357
;WIDTH:0.470106
G1 X156.492 Y122.485 E.00434
;WIDTH:0.502051
G1 X156.537 Y122.599 E.00467
G1 X156.588 Y123.2 E.02304
G1 X156.537 Y123.801 E.02304
G1 X156.399 Y124.137 E.01387
;WIDTH:0.461025
G1 X156.261 Y124.473 E.01263
;WIDTH:0.419999
G1 X155.864 Y125.07 E.02248
G1 X155.331 Y125.549 E.02247
G1 X154.695 Y125.881 E.02248
G1 X153.997 Y126.044 E.02247
G1 X153.307 Y126.032 E.02165
G1 X152.598 Y125.838 E.02304
G1 X151.97 Y125.477 E.02272
G1 X151.458 Y124.975 E.02248
G1 X151.087 Y124.362 E.02247
G1 X150.88 Y123.675 E.02247
G1 X150.851 Y122.959 E.02248
G1 X151 Y122.258 E.02248
G1 X151.319 Y121.616 E.02247
G1 X151.788 Y121.074 E.02247
G1 X152.377 Y120.665 E.02248
G1 X153.023 Y120.422 E.02165
G1 X153.753 Y120.342 E.02304
G1 X154.47 Y120.446 E.02272
G1 X155.108 Y120.712 E.02166
G1 X155.696 Y121.153 E.02304
G1 X155.751 Y121.222 E.00278
G1 X155.506 Y121.507 F10800
G1 F1200
G1 X155.842 Y121.942 E.01722
G1 X156.087 Y122.514 E.01952
G1 X156.188 Y123.2 E.02174
G1 X156.123 Y123.749 E.01733
G1 X155.91 Y124.334 E.01952
G1 X155.559 Y124.848 E.01952
G1 X155.09 Y125.259 E.01952
G1 X154.535 Y125.54 E.01952
G1 X153.927 Y125.674 E.01952
G1 X153.329 Y125.655 E.01874
G1 X152.712 Y125.478 E.02015
G1 X152.172 Y125.159 E.01967
G1 X151.733 Y124.717 E.01953
G1 X151.417 Y124.18 E.01952
G1 X151.245 Y123.582 E.01952
G1 X151.228 Y122.959 E.01952
G1 X151.365 Y122.352 E.01952
G1 X151.65 Y121.798 E.01952
G1 X152.062 Y121.332 E.01952
G1 X152.579 Y120.983 E.01953
G1 X153.141 Y120.781 E.01874
G1 X153.78 Y120.718 E.02015
G1 X154.4 Y120.817 E.01967
G1 X154.948 Y121.053 E.01874
G1 X155.469 Y121.46 E.02071
G1 X155.22 Y121.738 F10800
;TYPE:External perimeter
G1 F1200
G1 X155.537 Y122.163 E.01663
G1 X155.737 Y122.653 E.01658
G1 X155.81 Y123.2 E.01732
G1 X155.749 Y123.702 E.01585
G1 X155.559 Y124.195 E.01658
G1 X155.254 Y124.626 E.01658
G1 X154.85 Y124.968 E.01658
G1 X154.374 Y125.198 E.01658
G1 X153.856 Y125.303 E.01658
G1 X153.352 Y125.279 E.01583
G1 X152.825 Y125.119 E.01727
G1 X152.374 Y124.84 E.01662
G1 X152.008 Y124.459 E.01658
G1 X151.748 Y123.998 E.01658
G1 X151.611 Y123.488 E.01658
G1 X151.605 Y122.959 E.01658
G1 X151.73 Y122.446 E.01658
G1 X151.98 Y121.98 E.01658
G1 X152.337 Y121.59 E.01657
G1 X152.781 Y121.302 E.01658
G1 X153.258 Y121.139 E.01583
G1 X153.807 Y121.094 E.01727
G1 X154.329 Y121.187 E.01662
G1 X154.789 Y121.395 E.01583
G1 X155.173 Y121.701 E.01538
G1 X155.608 Y121.642 F10800
;WIPE_START
G1 F8640
G1 X155.537 Y122.163 E-.13588
G1 X155.737 Y122.653 E-.12207
G1 X155.81 Y123.2 E-.12753
G1 X155.749 Y123.702 E-.1167
G1 X155.559 Y124.195 E-.12207
G1 X155.254 Y124.626 E-.12208
G1 X155.208 Y124.665 E-.01367
;WIPE_END
G1 E-.04 F2100
G1 Z.6 F10800
G1 X153.9 Y150.363
G1 Z.2
G1 E.8 F2100
;TYPE:Perimeter
G1 F1200
G1 X154.47 Y150.446 E.01806
G1 X155.131 Y150.724 E.02248
G1 X155.702 Y151.158 E.02247
G1 X156.147 Y151.72 E.02247
;WIDTH:0.438161
G1 X156.446 Y152.372 E.02357
;WIDTH:0.470106
G1 X156.492 Y152.485 E.00434
;WIDTH:0.502051
G1 X156.537 Y152.599 E.00467
G1 X156.588 Y153.2 E.02304
G1 X156.537 Y153.801 E.02304
G1 X156.399 Y154.137 E.01387
;WIDTH:0.461025
G1 X156.261 Y154.473 E.01263
;WIDTH:0.419999
G1 X155.864 Y155.07 E.02248
G1 X155.331 Y155.549 E.02247
G1 X154.695 Y155.881 E.02248
G1 X153.997 Y156.044 E.02247
G1 X153.281 Y156.029 E.02248
G1 X153.049 Y155.985 E.0074
G1 X152.479 Y155.791 E.01888
G1 X151.97 Y155.477 E.01875
G1 X151.458 Y154.975 E.02248
G1 X151.087 Y154.362 E.02247
G1 X150.88 Y153.675 E.02247
G1 X150.851 Y152.959 E.02248
G1 X151 Y152.258 E.02248
G1 X151.319 Y151.616 E.02247
G1 X151.788 Y151.074 E.02247
G1 X152.377 Y150.665 E.02248
G1 X153.023 Y150.422 E.02165
G1 X153.753 Y150.342 E.02304
G1 X153.841 Y150.354 E.00278
G1 X153.858 Y150.73 F10800
G1 F1200
G1 X154.4 Y150.817 E.01721
G1 X154.971 Y151.066 E.01953
G1 X155.462 Y151.449 E.01952
G1 X155.842 Y151.942 E.01952
G1 X156.087 Y152.514 E.01952
G1 X156.183 Y153.129 E.01952
G1 X156.123 Y153.749 E.01952
G1 X155.91 Y154.334 E.01952
G1 X155.559 Y154.848 E.01952
G1 X155.09 Y155.259 E.01952
G1 X154.535 Y155.54 E.01952
G1 X153.927 Y155.674 E.01952
G1 X153.304 Y155.652 E.01952
G1 X153.165 Y155.626 E.00444
G1 X152.64 Y155.45 E.01737
G1 X152.172 Y155.159 E.01729
G1 X151.733 Y154.717 E.01953
G1 X151.417 Y154.18 E.01952
G1 X151.245 Y153.582 E.01952
G1 X151.228 Y152.959 E.01952
G1 X151.365 Y152.352 E.01952
G1 X151.65 Y151.798 E.01952
G1 X152.063 Y151.332 E.01952
G1 X152.579 Y150.983 E.01952
G1 X153.141 Y150.781 E.01874
G1 X153.798 Y150.721 E.02071
G1 X153.807 Y151.094 F10800
;TYPE:External perimeter
G1 F1200
G1 X154.329 Y151.187 E.01662
G1 X154.81 Y151.407 E.01658
G1 X155.221 Y151.739 E.01658
G1 X155.537 Y152.163 E.01658
G1 X155.737 Y152.653 E.01658
G1 X155.809 Y153.176 E.01658
G1 X155.749 Y153.702 E.01658
G1 X155.559 Y154.195 E.01658
G1 X155.254 Y154.626 E.01658
G1 X154.85 Y154.968 E.01658
G1 X154.374 Y155.198 E.01658
G1 X153.856 Y155.303 E.01658
G1 X153.282 Y155.267 E.01804
G1 X152.801 Y155.109 E.01586
G1 X152.374 Y154.84 E.01583
G1 X152.008 Y154.459 E.01658
G1 X151.748 Y153.998 E.01658
G1 X151.611 Y153.488 E.01658
G1 X151.605 Y152.959 E.01658
G1 X151.73 Y152.446 E.01658
G1 X151.98 Y151.98 E.01658
G1 X152.337 Y151.59 E.01658
G1 X152.781 Y151.302 E.01658
G1 X153.258 Y151.139 E.01583
G1 X153.747 Y151.099 E.01538
G1 X154.025 Y150.758 F10800
;WIPE_START
G1 F8640
G1 X154.329 Y151.187 E-.13585
G1 X154.81 Y151.407 E-.12211
G1 X155.221 Y151.739 E-.12207
G1 X155.537 Y152.163 E-.12207
G1 X155.737 Y152.653 E-.12207
G1 X155.809 Y153.176 E-.12207
G1 X155.802 Y153.236 E-.01375
;WIPE_END
G1 E-.04 F2100
G1 Z.6 F10800
G1 X155.553 Y109.655
G1 Z.2
G1 E.8 F2100
;TYPE:Solid infill
;WIDTH:0.421901
G1 F1200
G1 X156.376 Y110.478 E.03669
G1 X156.376 Y111.014 E.01689
G1 X155.186 Y109.825 E.05301
G1 X154.65 Y109.825 E.01689
G1 X156.376 Y111.55 E.0769
G1 X156.376 Y112.086 E.01689
G1 X154.114 Y109.825 E.10079
G1 X153.578 Y109.825 E.01689
G1 X156.376 Y112.622 E.12467
G1 X156.376 Y113.158 E.01689
G1 X153.042 Y109.824 E.14856
G1 X152.507 Y109.824 E.01689
G1 X156.376 Y113.694 E.17244
G1 X156.376 Y114.23 E.01689
G1 X151.971 Y109.824 E.19633
G1 X151.435 Y109.824 E.01689
G1 X156.376 Y114.766 E.22021
G1 X156.376 Y115.302 E.01689
G1 X150.899 Y109.824 E.2441
G1 X150.363 Y109.824 E.01689
G1 X156.376 Y115.838 E.26799
G1 X156.376 Y116.374 E.01689
G1 X149.827 Y109.824 E.29187
G1 X149.291 Y109.824 E.01689
G1 X156.376 Y116.91 E.31576
G1 X156.376 Y117.446 E.01689
G1 X148.755 Y109.824 E.33964
G1 X148.219 Y109.824 E.01689
G1 X156.376 Y117.982 E.36353
G1 X156.376 Y118.518 E.01689
G1 X147.683 Y109.824 E.38741
G1 X147.147 Y109.824 E.01689
G1 X156.376 Y119.054 E.4113
G1 X156.376 Y119.589 E.01689
G1 X146.611 Y109.824 E.43518
G1 X146.075 Y109.824 E.01689
G1 X156.376 Y120.125 E.45907
G1 X156.376 Y120.661 E.01689
G1 X145.539 Y109.824 E.48296
G1 X145.003 Y109.824 E.01689
G1 X155.21 Y120.031 E.45486
G1 X154.966 Y119.917 E.00847
G1 X154.6 Y119.799 E.01213
G1 X154.404 Y119.762 E.00627
G1 X144.467 Y109.824 E.44286
G1 X143.931 Y109.824 E.01689
G1 X153.794 Y119.688 E.43957
G1 X153.284 Y119.714 E.0161
G1 X143.395 Y109.824 E.44072
G1 X142.859 Y109.824 E.01689
